X:1
T:Era gia per lasciar freddo
T:Tiburtio Massaino
T:Era gia per lasciar freddo
T:Prima parte
C:Tiburtio Massaino
%%score [ 1 2 3 4 ]
L:1/8
Q:1/4=100
M:4/2
K:C
V:1 alto1 nm="Canto" snm="C"
V:2 alto nm="Alto" snm="A"
V:3 tenor nm="Tenore" snm="T"
V:4 bass nm="Basso" snm="B"
V:1
 z16 |[K:D][K:treble] E8 E4 ^D4 | E2 E2 F4 G4 G2 F2- | F2 E4 ^D2 E4 z2 B2- | B2 A2 A4 G2 E2 F4- | %5
w: |E- ra gia|per la- sciar fred- do nel|_ let- * to Il|_ suo vec- chio Ti- ton|
 F2 F2 B3 A G2 B2 A2 G2- | G2 FE F4 G2 B2 A2 G2 | F2 G2 F4 E4 z2 B2- | B2 B2 B4 c2 c2 d4 | %9
w: _ la bell' _ _ Au- ro- *|* * * * ra, la bell' Au-|ro- * * ra, Quand'|_ il vol- to gen- til|
 B2 A2 =c2 BAGF E2 ^D2 E2 | A2 B2 c4 ^d8 | z8 z2 B2 =c2 c2 | B3 A G4 F4 z2 B2- | %13
w: che m'in- na- mo- * * * * ra, che|m'in- na- mo- ra,|M'ap- par- se in|so- * * gno con|
 B2 B2 d3 cBA G4 B2 | B3 AGF E4 D2 E2 B2 | dcBA B3 A G2 FE F4 | F4 z4 z2 A2 BAGF | G3 A B8 A4 | %18
w: _ ri- den- * * * * te as-|pet- * * * * * to, ri-|den- * * * * te as- pet- * * *|to, ri- den- * * *|* te as- pet- to,|
 z8 B4 B2 c2 | d2 c2 B2 A2 B4 B4- | B2 A2 A4 B6 B2 | B2 B2 c4 d4 d4- | d4 d6 d2 d2 d2 | %23
w: Pa- rea- mi|dir _ _ _ _ deh|_ _ _ la- scia o-|gni so- spet- to, deh|_ la- scia o- gni so-|
 B4 B4 z4 G2 A2 | B4 B2 c2 d4 A4 | z4 B2 c2 d4 d2 c2 | B4 B2 B4 B2 G4 | A4 A6 A2 A4- | %28
w: spet- to, Che di|me gia pren- de- sti,|Che di me gia pren-|de- sti et se fin ho-|ra Sta- ta cru-|
 A4 A4 c4 B4- | B4 A4 B8- | B8 z4 z2 e2 | ^d2 d2 e4 B2 A4 G2 | F2 G4 F2 G8 | z2 B4 A2 B2 B4 B2 | %34
w: * del ti so|_ _ no|_ hor|guint' e l'ho- ra, hor guint'|e l'ho- * ra,|Che di me pren- der|
 B2 c3 c c2 d4 B2 B2- | B2 c2 ^d2 e4 c2 =d2 B2- | BB B2 A4 A4 z2 B2- | BB A2 G4 F8- | F16 || %39
w: poi gio- ia e di- let- to, Che|_ di me pren- der poi gio-|* ia e di- let- to, gio-|* ia e di- let- to.|_|
V:2
 z16 |[K:D][K:treble] B,8 B,4 B,4 | B,4 D4 D4 D4 | B,2 =C2 B,4 B,4 z2 E2- | %4
w: |E- ra gia|per la- sciar fred-|do nel let- to Il|
 E2 C2 D4 B,2 B,2 C2 C2 | D4 B,2 D2 D4 =C4 | =C8 B,4 z2 E2 | D2 E2 D4 E2 G4 G2 | F4 G2 G2 A8 | %9
w: _ suo vec- chio Ti- ton la|bel- la, la bell' Au-|ro- ra, la|bell' Au- ro- ra, Quand' il|vol- to gen- til|
 G2 E4 ^D2 E2 E2 z2 G2 | F2 D2 F8 F4 | z2 G2 F2 F2 B4 A4 | z2 G2 E3 D C4 F2 F2- | %13
w: che m'in- na- mo- ra, che|m'in- na- mo- ra,|M'ap- par- se in so- gno,|M'ap- par- se in so- gno con|
 F2 E2 F3 EDC B,4 E2 | G6 A2 B3 A G4 | F2 G4 E2 D8 | C2 D4 D4 C2 FEDC | B,2 E2 ^D4 E4 z4 | %18
w: _ ri- den- * * * * te as-|pet- * * * *|to, con ri- den-|te as- pet- to, ri- den- * * *|* te as- pet- to,|
 z4 B,4 B,2 C2 D4 | z2 E2 E2 F2 G8- | G4 E4 F6 F2 | F2 F2 A4 A4 B4- | B4 A6 A2 A2 A2 | %23
w: Pa- rea- mi dir,|Pa- rea- mi dir|_ deh la- scia o-|gni so- spet- to, deh|_ la- scia o- gni so-|
 G4 F4 G2 A2 B4 | B,2 C2 D4 B,4 z4 | z16 | z4 D4 D4 D4 | E4 F4 z2 E4 F2- | F2 F4 E4 F4 G2- | %29
w: spet- to, Che di me|gia pren- de- sti,||et se fin|ho- ra Sta- ta|_ cru- del ti so|
 G2 F2 E8 ^D4 | z4 G4 A2 A2 G4 | F4 z2 G2 F3 E D4- | D4 D4 z2 D4 E2 | F2 D4 E2 ^D2 E4 F2 | %34
w: _ _ _ no|hor guint' e l'ho-|ra, hor guint' e l'ho-|* ra, Che di|me, Che di me pren- der|
 ^G2 A2 E2 E2 F4 =G2 G2 | B2 A2 BAGF E4 F2 D2- | D2 G2 E4 F2 F4 G2- | G2 F2 E4 ^D8- | D16 || %39
w: poi gio- ia e di- let- to, gio-|ia e di- let- * * * * to, e|_ di- let- to, gio- ia e|_ di- let- to.|_|
V:3
 z16 |[K:D][K:treble-8] z4 E4 G4 F4 | G4 A4 B4 A4 | ^G2 A2 F4 E4 z2 =G2- | G2 E2 F4 G2 B2 ^A4 | %5
w: |E- ra gia|per la- sciar fred-|do nel let- to Il|_ suo vec- chio Ti- ton|
 B4 d3 cBAGF E2 E2 | A4 A2 A2 d6 B2 | B8 E8 | z2 B4 e2 e4 f2 f2 | edcB A2 F2 EFGA B3 c | %10
w: la bell' _ _ _ _ _ _ Au-|ro- ra, la bell' Au-|ro- ra,|Quand' il vol- to gen-|til _ _ _ _ che m'in- * * * * na-|
 dc B4 ^A2 B4 z2 B2 | e2 e2 ^d4 e8 | z4 B4 ^A4 B4 | G4 F2 B4 E2 BAGF | E2 E2 e3 f g2 f2 z2 B2 | %15
w: mo- * * * ra, M'ap-|par- se in so- gno,|M'ap- par- se in|so- gno con ri- den- * * *|* te as- pet- * * to, ri-|
 BAGF E2 =c2 B2 AG A2 B2 | A4 B2 B4 A2 dcBA | G2 =c2 B4 E4 z4 | B4 B2 c2 d4 G4 | G2 A2 B4 z8 | %20
w: den- * * * * te as- pet- * * * *|* to, con ri- den- * * *|* te as- pet- to,|Pa- rea- mi dir, Pa-|rea- mi dir|
 e8 ^d6 d2 | ^d2 d2 e4 f4 g4- | g4 f8 f4 | e2 e2 ^d4 e8 | z16 | G2 A2 B4 B2 c2 d4 | %26
w: deh la- scia o-|gni so- spet- to, deh|_ la- scia o-|gni so- spet- to,||Che di me gia pren- de-|
 G2 G4 B4 B4 d2- | d2 c2 d2 d4 c2 c2 d2- | d2 cB c4 z4 d4 | e6 f2 g4 f4 | e4 d3 e f4 B4 | %31
w: sti, et se fin ho-|* * ra Sta- ta cru- del|_ _ _ _ ti|so _ _ no|hor guint' e l'ho- ra,|
 z4 z2 B2 d3 c B4- | B2 AG A4 G2 G4 =c2 | B2 g4 e2 f2 g3 g f2 | e4 A2 A3 A A2 d4 | %35
w: hor guint' e l'ho-|* * * * ra, Che di|me pren- der poi gio- ia e di-|let- to, gio- ia e di- let-|
 d2 f4 e2 B2 A4 B2 | B2 d3 d c2 d4 B2 d2- | d2 d2 B4 B8- | B16 || %39
w: to, Che di me pren- der|poi gio- ia e di- let- to, e|_ di- let- to.|_|
V:4
 z16 |[K:D] E,8 E,4 B,,4 | E,4 D,4 G,4 D,4 | E,2 A,,2 B,,4 E,4 z2 E,2- | E,2 A,,2 D,4 E,2 G,2 F,4 | %5
w: |E- ra gia|per la- sciar fred-|do nel let- to Il|_ suo vec- chio Ti- ton|
 B,,4 G,,3 A,, B,,4 =C,4 | A,,8 G,,2 G,2 D,2 E,2 | B,,4 B,,4 z4 B,4- | B,4 E,4 A,4 D,2 D,2 | %9
w: la bell' _ _ Au-|ro- ra, la bell' Au-|ro- ra, Quand'|_ il vol- to gen-|
 E,2 A,,2 A,,2 B,,2 =C,4 B,,2 E,2 | D,2 G,2 F,4 B,,8 | z4 B,4 ^G,2 G,2 A,4 | E,8 z2 F,2 ^D,2 D,2 | %13
w: til che m'in- na- mo- ra, che|m'in- na- mo- ra,|M'ap- par- se in so-|gno, M'ap- par- se in|
 E,4 B,,4 z2 G,4 E,2 | B,A,G,F, E,2 C2 B,4 E,4 | z8 z2 D,4 B,,2 | F,E,D,C, B,,2 G,2 F,4 B,,4 | %17
w: so- gno con ri-|den- * * * * te as- pet- to,|con ri-|den- * * * * te as- pet- to,|
 z4 B,4 B,2 C2 D4 | G,4 G,2 A,2 B,8 | z4 E,4 E,2 F,2 G,4 | =C8 B,6 B,2 | B,2 B,2 A,4 D,4 G,4- | %22
w: Pa- rea- mi dir,|Pa- rea- mi dir,|Pa- rea- mi dir|deh la- scia o-|gni so- spet- to, deh|
 G,4 D,6 D,2 D,2 D,2 | E,4 B,,4 z8 | G,,2 A,,2 B,,4 B,,2 C,2 D,4 | G,,4 G,2 A,2 B,4 B,2 C2 | %26
w: _ la- scia o- gni so-|spet- to,|Che di me gia pren- de-|sti, Che di me gia pren-|
 D4 G,4 z2 G,2 G,2 B,2 | A,4 D,4 A,,8 | A,,4 A,,4 A,4 B,4 | =C8 B,8 | z4 G,4 D,2 D,2 E,4 | %31
w: de- sti, et se fin|ho- ra Sta-|ta cru- del ti|so no|hor guint' e l'ho-|
 B,,4 z2 E,2 B,2 F,2 G,4 | D,8 z8 | z2 G,,4 =C,2 B,,2 E,4 ^D,2 | E,2 A,,3 A,, A,,2 D,4 G,,2 G,2- | %35
w: ra, hor guint' e l'ho-|ra,|Che di me pren- der|poi gio- ia e di- let- to, Che|
 G,2 F,2 B,2 E,4 A,2 D,2 G,2- | G,G, G,2 A,4 D,4 z2 G,2- | G,G, D,2 E,4 B,,8- | B,,16 || %39
w: _ di me pren- der poi gio-|* ia e di- let- to, gio-|* ia e di- let- to.|_|

